icons/Cloudflare-Dark.svg

<svg xmlns="http://www.w3.org/2000/svg" width="256" height="256" fill="none" viewBox="0 0 256 256"><rect width="256" height="256" fill="#242938" rx="60"/><g clip-path="url(#clip0_4_272)"><path fill="#fff" d="M79 171.75H211.356V135.125L186.212 120.706L181.875 118.831L79 119.537V171.75Z"/><path fill="#F38020" d="M165.575 166.887C166.806 162.669 166.338 158.8 164.288 155.925C162.413 153.287 159.244 151.762 155.438 151.587L83.2813 150.65C82.8125 150.65 82.4063 150.412 82.1688 150.062C81.9313 149.712 81.875 149.25 81.9938 148.775C82.2313 148.069 82.9313 147.544 83.6938 147.487L156.494 146.55C165.119 146.137 174.494 139.162 177.769 130.612L181.931 119.769C182.115 119.323 182.158 118.833 182.056 118.362C177.369 97.1437 158.431 81.3187 135.806 81.3187C114.931 81.3187 97.2438 94.8 90.9063 113.506C86.8 110.456 81.5313 108.819 75.9563 109.344C65.9313 110.344 57.8313 118.369 56.9063 128.394C56.6634 130.887 56.8408 133.403 57.4313 135.837C49.5447 136.051 42.0537 139.337 36.5556 144.995C31.0574 150.653 27.9874 158.236 28 166.125C28 167.587 28.125 169.062 28.2938 170.519C28.4188 171.225 29 171.75 29.7 171.75H162.875C163.258 171.743 163.629 171.614 163.934 171.383C164.24 171.151 164.464 170.829 164.575 170.462L165.575 166.887V166.887Z"/><path fill="#FAAE40" d="M188.55 120.519L186.55 120.581C186.081 120.581 185.675 120.931 185.487 121.394L182.675 131.181C181.444 135.4 181.912 139.269 183.962 142.144C185.837 144.781 189.006 146.306 192.812 146.481L208.169 147.419C208.637 147.419 209.044 147.656 209.281 148.006C209.519 148.356 209.575 148.881 209.456 149.294C209.219 150 208.519 150.525 207.756 150.581L191.756 151.519C183.081 151.931 173.756 158.906 170.481 167.456L169.306 170.444C169.069 171.031 169.481 171.619 170.119 171.619H225.1C225.418 171.623 225.729 171.522 225.983 171.331C226.238 171.14 226.422 170.869 226.506 170.562C227.481 167.096 227.983 163.513 228 159.912C227.97 149.465 223.802 139.454 216.409 132.072C209.015 124.69 198.998 120.538 188.55 120.525"/></g><defs><clipPath id="clip0_4_272"><rect width="200" height="200" fill="#fff" transform="translate(28 28)"/></clipPath></defs></svg>

<svg xmlns="http://www.w3.org/2000/svg" width="256" height="256" fill="none" viewBox="0 0 256 256"><rect width="256" height="256" fill="#242938" rx="60"/><g clip-path="url(#a)"><path fill="#fff" d="M79 171.75h132.36v-36.62L186.2 120.7l-4.34-1.88-102.87.7z"/><path fill="#F38020" d="M165.58 166.89c1.23-4.22.76-8.09-1.3-10.96-1.87-2.64-5.04-4.17-8.84-4.34l-72.16-.94c-.47 0-.87-.24-1.11-.59s-.3-.81-.18-1.28c.24-.71.94-1.24 1.7-1.3l72.8-.93c8.63-.41 18-7.39 21.28-15.94l4.16-10.84q.28-.7.13-1.4a47.4 47.4 0 0 0-91.15-4.86 21.6 21.6 0 0 0-14.95-4.17A21.3 21.3 0 0 0 56.9 128.4q-.37 3.77.52 7.45A30.25 30.25 0 0 0 28 166.12c0 1.47.13 2.94.3 4.4.12.7.7 1.23 1.4 1.23h133.18a1.8 1.8 0 0 0 1.7-1.29z"/><path fill="#FAAE40" d="m188.55 120.52-2 .06c-.47 0-.87.35-1.06.81l-2.81 9.8c-1.24 4.21-.77 8.08 1.28 10.95 1.88 2.64 5.05 4.17 8.85 4.34l15.36.94c.47 0 .87.24 1.11.59s.3.87.18 1.28a2 2 0 0 1-1.7 1.3l-16 .93c-8.68.41-18 7.39-21.28 15.94l-1.17 2.98a.84.84 0 0 0 .8 1.18h54.99a1.44 1.44 0 0 0 1.4-1.06 40 40 0 0 0 1.5-10.65 39.5 39.5 0 0 0-39.45-39.38"/></g><defs><clipPath id="a"><path fill="#fff" d="M28 28h200v200H28z"/></clipPath></defs></svg>
